!!!COM:	Bach, Johann Sebastian
!!!CDT:	1685/02/21/-1750/07/28/
!!!OTL@@DE:	Dir, dir, Jehova will ich singen
!!!SCT:	BWV 299
!!!PC#:	209
!!!AGN:	chorale
**kern	**kern	**kern	**kern
*ICvox	*ICvox	*ICvox	*ICvox
*Ibass	*Itenor	*Ialto	*Isoprn
*I"Bass	*I"Tenor	*I"Alto	*I"Soprano
*>[A,A,B]	*>[A,A,B]	*>[A,A,B]	*>[A,A,B]
*>norep[A,B]	*>norep[A,B]	*>norep[A,B]	*>norep[A,B]
*>A	*>A	*>A	*>A
*clefF4	*clefGv2	*clefG2	*clefG2
*k[b-e-]	*k[b-e-]	*k[b-e-]	*k[b-e-]
*B-:	*B-:	*B-:	*B-:
*M3/4	*M3/4	*M3/4	*M3/4
*MM100	*MM100	*MM100	*MM100
4B-	4B-	4d	4f
=1	=1	=1	=1
4D	4B-	4f	4b-
4C	8fL	8b-L	8ddL
.	8e-J	8aJ	8ccJ
4BB-	4f	4b-	8ddL
.	.	.	8b-J
=2	=2	=2	=2
4E-	4e-	4b-	4gg
8GL	8B-L	2g	2ee-
8FJ	8AJ	.	.
8GL	8B-L	.	.
8E-J	8cJ	.	.
=3	=3	=3	=3
8B-L	2d	4f	4ff
8AJ	.	.	.
4G	.	8gL	4b-
.	.	8aJ	.
4E-	4g	4b-	4ee-
=4	=4	=4	=4
2F	4.f	4b-	2cc
.	.	4a	.
.	8e-	.	.
4BB-;	4d;	4f;	4b-;
=5	=5	=5	=5
8AL	8cL	4f	4cc
8GJ	8B-J	.	.
8AL	8cL	4.f	8ccL
8FJ	8AJ	.	8ee-J
4B-	4B-	.	4dd
.	.	8g	.
=6	=6	=6	=6
4F	4c	4a	4cc
4E-	4F	8b-L	8ddL
.	.	8aJ	8ccJ
4D	4F	4b-	8ddL
.	.	.	8b-J
=7	=7	=7	=7
4C	4c	4e-	8aL
.	.	.	8b-J
8DL	4B-	8fL	4.b-
8CJ	.	8e-J	.
8DL	8FL	8fL	.
8BB-J	8GJ	8eJ	8cc
=8	=8	=8	=8
2FF;	2A;	2f;	2cc;
=:|!	=:|!	=:|!	=:|!
*>B	*>B	*>B	*>B
8FL	4c	4f	4a
8E-J	.	.	.
=9	=9	=9	=9
4D	4F	2f	4b-
8E-L	4A	.	4cc
8DJ	.	.	.
8CL	4B-	4f	4dd
8BB-J	.	.	.
=10	=10	=10	=10
4.E-	4.B-	4.e-	4g
.	.	.	8ggL
8E-	8B-	8g	8ee-J
[4A-	[4c	8e-L	8ccL
.	.	8dJ	8bJ
=11	=11	=11	=11
8A-L]	8cL]	4e-	8ccL
8GJ	8cJ	.	8ddJ
4F	4c	4a-	4.dd
4G	4B	4f	.
.	.	.	8ee-
=12	=12	=12	=12
2C;	2c;	2g;	2ee-;
4E-	4c	4g	4cc
=13	=13	=13	=13
2F	2c	4f	8b-L
.	.	.	8anXJ
.	.	4g	8b-L
.	.	.	8aJ
4E-	4c	4a	8gL
.	.	.	8fJ
=14	=14	=14	=14
4D	4.d	4.b-	4.ff
8GL	.	.	.
8FJ	8d	8b-	8b-
8E-L	4e-	[4b-	[4gg
8DJ	.	.	.
=15	=15	=15	=15
4E-	4B-	8b-L]	8ggL]
.	.	8b-J	8ffJ
4F	4f	4b-	8ee-L
.	.	.	8ddJ
4FF	8e-L	4a	8ccL
.	8dJ	.	8b-J
=16	=16	=16	=16
2BB-;	2d;	2f;	2b-;
==	==	==	==
*-	*-	*-	*-
!!!hum2abc: -Q ''
!!!title: @{PC#}. @{OTL@@DE}
!!!YOR1: 371 vierstimmige Choralges&auml;nge von Johann Sebastian Bach, 
!!!YOR2: 4th ed. by Alfred D&ouml;rffel (Leipzig: Breitkopf und H&auml;rtel, 
!!!YOR2: c.1875). 178 pp. Plate "V.A.10".  reprint: J.S. Bach, 371 Four-Part 
!!!YOR4: Chorales (New York: Associated Music Publishers, Inc., c.1940).
!!!SMS: B&H, 4th ed, Alfred D&ouml;rffel, c.1875, plate V.A.10
!!!EED:  Craig Stuart Sapp
!!!EEV:  2009/05/22
